!!!id: bhatk3189a
!!!vol: 3
!!!page: 190
!!!antara: Lekar kharga
!!!raag: bihag
!!!taal: teental
!!!tempo: madhyalaya
**kern
!!data: // >mP  -  S'  S'/  S'  -  S'  S'/  S'  -  S'  S'/  -  >NS'  R'  S'/
==1
f#q
2g
4cc
4cc
=
2cc
4cc
4cc
=
2cc
4cc
[4cc
=
4cc]
bq
4cc
4dd
4cc
!!data: // >NS'  >R'S'  N  -/  P  P  N  N/  S'  ND  m  P/  >PG  M  P  M/
==2
bq
4cc
ddq
4cc
2b
=
4g
4g
4b
4b
=
4cc
8b
8a
4f#
4g
=
gq
4e
4f
4g
4f
!!data: // G  G  >SN,  S/  N,  S  >MG  M/  P  N  S'  -/>NS'  >S'G'  >R'N  S'/
==3
4e
4e
cq
4B
4c
=
4B
4c
fq
4e
4f
=
4g
4b
2cc
=
bq
4cc
ccq
4ee
ddq
4b
4cc
!!data: // N  -  -  P/  >PG  G  GM  PD/  M  G  RS  >N,S/  =  =  =  =/
==4
2.b
4g
=
gq
4e
4e
8e
8f
8g
8a
=
4f
4e
8d
8c
Bq
4c
=
4ryy
4ryy
4ryy
4ryy
==
*-
